dist/img/svg/and.svg

<svg width="52" height="61" viewBox="0 0 52 61" xmlns="http://www.w3.org/2000/svg">
<path d="M47.1466 20.0334C44.79 20.0334 42.8833 21.94 42.8833 24.2934V39.3934C42.8833 41.7567 44.79 43.66 47.1466 43.66C49.5033 43.66 51.41 41.7567 51.41 39.3934V24.2934C51.41 21.94 49.5033 20.0334 47.1466 20.0334ZM4.8533 20.0334C2.49663 20.0334 0.589966 21.94 0.589966 24.2934V39.3934C0.589966 41.7567 2.49663 43.66 4.8533 43.66C7.20997 43.66 9.11663 41.7567 9.11663 39.3934V24.2934C9.11997 21.94 7.20997 20.0334 4.8533 20.0334ZM34.4833 7.33669L37.0433 2.71002C37.3633 2.15336 37.1533 1.45336 36.6 1.14336C36.04 0.830024 35.3366 1.03336 35.03 1.59336L32.4 6.32669C30.44 5.54336 28.28 5.10002 26 5.10002C23.72 5.10002 21.56 5.54002 19.6 6.32336L16.97 1.59669C16.67 1.03669 15.9666 0.833357 15.4 1.14669C14.8466 1.45669 14.6433 2.15669 14.9566 2.71336L17.5166 7.34002C12.9066 9.96669 9.82663 14.6634 9.82663 20.0334C9.82663 20.07 9.82663 20.1034 9.8333 20.1467C9.82663 20.1667 9.82663 20.19 9.82663 20.21V20.2134H42.17V20.21C42.17 20.19 42.17 20.1667 42.17 20.1467C42.17 20.1034 42.17 20.07 42.17 20.0334C42.1733 14.6634 39.0933 9.97002 34.4833 7.33669ZM18.5333 13.8967C17.9033 13.8967 17.3866 13.3767 17.3866 12.7434C17.3866 12.11 17.9 11.59 18.5333 11.59C19.17 11.59 19.6933 12.1067 19.6933 12.7434C19.69 13.3767 19.17 13.8967 18.5333 13.8967ZM33.4666 13.8967C32.83 13.8967 32.3133 13.3767 32.3133 12.7434C32.3133 12.11 32.8266 11.59 33.4666 11.59C34.0966 11.59 34.6133 12.1067 34.6133 12.7434C34.6133 13.3767 34.1 13.8967 33.4666 13.8967ZM9.82663 44.7334C9.82663 46.8867 11.5766 48.6367 13.74 48.6367H15.6933V56.64C15.6933 58.9967 17.6066 60.9 19.9566 60.9C22.3066 60.9 24.22 58.9967 24.22 56.64V48.6367H27.7733V56.64C27.7733 58.9967 29.68 60.9 32.03 60.9C34.3933 60.9 36.3 58.9967 36.3 56.64V48.6367H38.2533C40.4133 48.6367 42.1666 46.89 42.1666 44.7334V21.0934H9.82663V44.7334Z" />
</svg>

<svg width="52" height="61" viewBox="0 0 52 61" xmlns="http://www.w3.org/2000/svg"><path d="M47.147 20.033a4.26 4.26 0 00-4.264 4.26v15.1a4.26 4.26 0 004.264 4.267 4.26 4.26 0 004.263-4.267v-15.1a4.26 4.26 0 00-4.263-4.26zm-42.294 0a4.26 4.26 0 00-4.263 4.26v15.1a4.26 4.26 0 004.263 4.267 4.26 4.26 0 004.264-4.267v-15.1a4.258 4.258 0 00-4.264-4.26zm29.63-12.696l2.56-4.627c.32-.557.11-1.257-.443-1.567a1.148 1.148 0 00-1.57.45L32.4 6.327A17.212 17.212 0 0026 5.1c-2.28 0-4.44.44-6.4 1.223l-2.63-4.726a1.145 1.145 0 00-1.57-.45 1.15 1.15 0 00-.443 1.566l2.56 4.627c-4.61 2.627-7.69 7.323-7.69 12.693 0 .037 0 .07.006.114-.006.02-.006.043-.006.063v.003H42.17v-.18c.003-5.37-3.077-10.063-7.687-12.696zm-15.95 6.56a1.154 1.154 0 010-2.307c.637 0 1.16.517 1.16 1.153a1.164 1.164 0 01-1.16 1.154zm14.934 0a1.154 1.154 0 010-2.307c.63 0 1.146.517 1.146 1.153 0 .634-.513 1.154-1.146 1.154zM9.827 44.733a3.909 3.909 0 003.913 3.904h1.953v8.003a4.262 4.262 0 004.264 4.26 4.262 4.262 0 004.263-4.26v-8.003h3.553v8.003a4.256 4.256 0 004.257 4.26 4.26 4.26 0 004.27-4.26v-8.003h1.953a3.909 3.909 0 003.914-3.904v-23.64H9.827v23.64z"/></svg>
